rendering_styles/map-legend/sprites/osmand-waterways-day.svg

<svg version="1.1" viewBox="0 0 933.333 774.667" xmlns="http://www.w3.org/2000/svg">
 <defs>
  <pattern id="forestPattern" width="64" height="64" patternUnits="userSpaceOnUse">
   <g transform="translate(-.499 .465)" fill="none" stroke="#67bf4c" stroke-linecap="round">
    <path d="m60 51.035v11h2.307"/>
    <path d="m57.331 52.367 2.669-1.331 2.655 1.327"/>
    <path d="m56.894 55.513 3.106-1.477 3.107 1.477"/>
    <path d="m56.688 58.546 3.312-1.546 3.313 1.546"/>
   </g>
   <g transform="translate(-11.508 -.975)">
    <path d="m27.005 33.474v11h2.387" fill="none" stroke="#67bf4c" stroke-linecap="round"/>
    <path d="m26.567 33.457c-0.657 0-1.191.626-1.191 1.398 0 .286.076.565.215.799-.046 0-.092 0-.139-.01-0.73 0-1.324.696-1.324 1.555 0 .405.133.794.373 1.084-0.868 0-1.572.829-1.572 1.85 0 1.022.705 1.85 1.574 1.85.722 0 2.439-.012 2.482-.012h0.032c0.043 0 1.76.012 2.482.012.869 0 1.574-.828 1.574-1.85 0-1.02-.704-1.849-1.572-1.85.24-.29.373-.679.373-1.084 0-.859-.594-1.555-1.324-1.555-0.047 0-.093 0-.139.01.139-.234.214-.513.214-.799 0-.773-.534-1.399-1.191-1.399-0.634 0-.446.015-.434.016.013 0 .2-.016-.434-.016z" fill="none" stroke="#67bf4c" stroke-linejoin="round"/>
    <path d="m27.005 33.474 0.172 8.497s2.082.065 2.323 0c.241-.065 1.732-1 1.732-1s.216-1.329 0-1.544c-.216-.216-.833-.776-.912-.912-.078-.136-.621-.105-.562-.325.059-.219 0-1.219 0-1.219s-0.45-.779-.577-1c-0.128-.22-0.578-1-0.578-1s-0.142-1.295-.363-1.354c-0.22 0-.74-.198-.74-.198l-0.5.054z" fill="#67bf4c"/>
   </g>
   <g transform="translate(9.493 -21.975)">
    <path d="m27.005 33.474v11h2.387" fill="none" stroke="#67bf4c" stroke-linecap="round"/>
    <path d="m26.567 33.457c-0.657 0-1.191.626-1.191 1.398 0 .286.076.565.215.799-.046 0-.092 0-.139-.01-0.73 0-1.324.696-1.324 1.555 0 .405.133.794.373 1.084-0.868 0-1.572.829-1.572 1.85 0 1.022.705 1.85 1.574 1.85.722 0 2.439-.012 2.482-.012h0.032c0.043 0 1.76.012 2.482.012.869 0 1.574-.828 1.574-1.85 0-1.02-.704-1.849-1.572-1.85.24-.29.373-.679.373-1.084 0-.859-.594-1.555-1.324-1.555-0.047 0-.093 0-.139.01.139-.234.214-.513.214-.799 0-.773-.534-1.399-1.191-1.399-0.634 0-.446.015-.434.016.013 0 .2-.016-.434-.016z" fill="none" stroke="#67bf4c" stroke-linejoin="round"/>
    <path d="m27.005 33.474 0.172 8.497s2.082.065 2.323 0c.241-.065 1.732-1 1.732-1s.216-1.329 0-1.544c-.216-.216-.833-.776-.912-.912-.078-.136-.621-.105-.562-.325.059-.219 0-1.219 0-1.219s-0.45-.779-.577-1c-0.128-.22-0.578-1-0.578-1s-0.142-1.295-.363-1.354c-0.22 0-.74-.198-.74-.198l-0.5.054z" fill="#67bf4c"/>
   </g>
  </pattern>
  <clipPath id="canvas-boundary">
   <rect width="367" height="100"/>
  </clipPath>
 </defs>
 <g id="river" transform="translate(60,113)">
  <path d="m0.500978 0.50479 368.32-4e-3 0.0274 16.3254-368.341 0.0105z" fill="#5ac3e7" stroke="#a5d3e7"/>
  <path d="m23.3267 5.87446v-3.13533l6.62432 5.96808-6.64747 6.00576 0.05329-3.47228h-8.04935l-6.28e-4 -5.36105z" fill="#429ab5" stroke="#4aaece"/>
  <path d="m255.336 5.93233v-3.13533l6.62432 5.96808-6.64747 6.00576 0.0533-3.47228h-8.04935l-6.2e-4 -5.36105z" fill="#429ab5" stroke="#4aaece"/>
 </g>
 <g id="canal" transform="translate(60,172)">
  <path d="m0.500978 0.50479 368.32-4e-3 0.0274 16.3254-368.341 0.0105z" fill="#5ac3e7" stroke="#a5d3e7"/>
  <path d="m23.3267 5.87446v-3.13533l6.62432 5.96808-6.64747 6.00576 0.05329-3.47228h-8.04935l-6.28e-4 -5.36105z" fill="#429ab5" stroke="#4aaece"/>
  <path d="m255.336 5.93233v-3.13533l6.62432 5.96808-6.64747 6.00576 0.0533-3.47228h-8.04935l-6.2e-4 -5.36105z" fill="#429ab5" stroke="#4aaece"/>
 </g>
 <g id="stream" transform="translate(60,227)">
  <path d="m0.500785 4.16032h368.148v5.62002h-368.148z" fill="#5ac3e7" stroke="#a5d3e7"/>
  <path d="m23.1211 4.32122v-3.13533l6.62432 5.96808-6.64747 6.00576 0.05329-3.47228h-8.04935l-6.28e-4 -5.36105z" fill="#429ab5" stroke="#4aaece"/>
  <path d="m255.232 4.26056v-3.13533l6.62432 5.96808-6.64747 6.00576 0.0533-3.47228h-8.04934l-6.3e-4 -5.36105z" fill="#429ab5" stroke="#4aaece"/>
 </g>
 <g id="drain" transform="translate(60,289)">
  <path d="m0.500891 0.505792 368.325-5e-3 8e-3 2.99349-368.333-4e-3z" fill="#5ac3e7" stroke="#a5d3e7"/>
 </g>
 <g id="ditch" transform="translate(60,348)">
  <path d="m0.500891 0.505792 368.325-5e-3 8e-3 2.99349-368.333-4e-3z" fill="#5ac3e7" stroke="#a5d3e7"/>
 </g>
 <g id="intermittent_stream" transform="translate(60,400)" fill="#5ac3e7" stroke="#a5d3e7">
  <path d="m0 0h16.322v5.64623h-16.331z"/>
  <path d="m25.345-0.014h16.322v5.646h-16.331z"/>
  <path d="m50.692 0h16.322v5.646h-16.331z"/>
  <path d="m76.037-0.014h16.322v5.646h-16.331z"/>
  <path d="m101.31 0h16.322v5.646h-16.331z"/>
  <path d="m126.655-0.014h16.322v5.646h-16.331z"/>
  <path d="m152.002 0h16.322v5.646h-16.331z"/>
  <path d="m177.347-0.014h16.322v5.646h-16.331z"/>
  <path d="m202.689 0h16.322v5.646h-16.331z"/>
  <path d="m228.033-0.014h16.322v5.646h-16.331z"/>
  <path d="m253.38 0h16.322v5.646h-16.331z"/>
  <path d="m278.725-0.014h16.322v5.646h-16.331z"/>
  <path d="m304 0h16.322v5.646h-16.331z"/>
  <path d="m329.345-0.014h16.322v5.646h-16.331z"/>
  <path d="m354.692 0h16.322v5.646h-16.331z"/>
 </g>
 <g id="dam" transform="translate(60,459)">
  <path d="m0 0h368.325v2.993h-368.325z" fill="#525552" stroke="#9c9e9c"/>
 </g>
 <g id="weir" transform="translate(60,518)">
  <path d="m0 0h368.325v2.993h-368.325z" fill="#525552" stroke="#9c9e9c"/>
 </g>
 <g id="groyne" transform="translate(60,569)">
  <path d="m0 0 368.325-5e-3 8e-3 5.60638-368.333-4e-3z" fill="#adaaad" stroke="#cec7c6"/>
 </g>
 <g id="breakwater" transform="translate(60,629)">
  <path d="m0 0 368.325-5e-3 8e-3 5.60638-368.333-4e-3z" fill="#adaaad" stroke="#cec7c6"/>
 </g>
 <g id="pier" transform="translate(61.61,662.692)">
  <path d="m0 0h366.643v63.969h-366.609z" fill="#5ac3e7" stroke="#a5d3e7"/>
  <path d="m63.979 25.235h267.518v6.761h-143.454v31.997h-6.629v-32.041h-117.435z" fill="#a4d1df" stroke="#7fc9e3"/>
 </g>
 <g id="cliff" transform="translate(488.301,112)" fill="none" stroke="#397539">
  <path d="m0 7.324h367.298"/>
  <path d="m0 0v14.625"/>
  <path d="m18.65 0v14.625"/>
  <path d="m37.3 0v14.625"/>
  <path d="m55.95 0v14.625"/>
  <path d="m74.6 0v14.625"/>
  <path d="m93.25 0v14.625"/>
  <path d="m111.9 0v14.625"/>
  <path d="m130.55 0v14.625"/>
  <path d="m149.2 0v14.625"/>
  <path d="m167.85 0v14.625"/>
  <path d="m186.5 0v14.625"/>
  <path d="m205.15 0v14.625"/>
  <path d="m223.8 0v14.625"/>
  <path d="m242.45 0v14.625"/>
  <path d="m261.1 0v14.625"/>
  <path d="m279.75 0v14.625"/>
  <path d="m298.4 0v14.625"/>
  <path d="m317.05 0v14.625"/>
  <path d="m335.7 0v14.625"/>
  <path d="m354.35 0v14.625"/>
 </g>
 <g id="slope" transform="translate(488.301,172)" fill="none" stroke="#c69e39">
  <path d="m0 7.324h367.298"/>
  <path d="m0 0v14.625"/>
  <path d="m18.65 0v14.625"/>
  <path d="m37.3 0v14.625"/>
  <path d="m55.95 0v14.625"/>
  <path d="m74.6 0v14.625"/>
  <path d="m93.25 0v14.625"/>
  <path d="m111.9 0v14.625"/>
  <path d="m130.55 0v14.625"/>
  <path d="m149.2 0v14.625"/>
  <path d="m167.85 0v14.625"/>
  <path d="m186.5 0v14.625"/>
  <path d="m205.15 0v14.625"/>
  <path d="m223.8 0v14.625"/>
  <path d="m242.45 0v14.625"/>
  <path d="m261.1 0v14.625"/>
  <path d="m279.75 0v14.625"/>
  <path d="m298.4 0v14.625"/>
  <path d="m317.05 0v14.625"/>
  <path d="m335.7 0v14.625"/>
  <path d="m354.35 0v14.625"/>
 </g>
 <g id="earth_bank" transform="translate(488.301,230)" fill="none" stroke="#a5aaa5">
  <path d="m0 7.324h367.298"/>
  <path d="m0 0v14.625"/>
  <path d="m18.65 0v14.625"/>
  <path d="m37.3 0v14.625"/>
  <path d="m55.95 0v14.625"/>
  <path d="m74.6 0v14.625"/>
  <path d="m93.25 0v14.625"/>
  <path d="m111.9 0v14.625"/>
  <path d="m130.55 0v14.625"/>
  <path d="m149.2 0v14.625"/>
  <path d="m167.85 0v14.625"/>
  <path d="m186.5 0v14.625"/>
  <path d="m205.15 0v14.625"/>
  <path d="m223.8 0v14.625"/>
  <path d="m242.45 0v14.625"/>
  <path d="m261.1 0v14.625"/>
  <path d="m279.75 0v14.625"/>
  <path d="m298.4 0v14.625"/>
  <path d="m317.05 0v14.625"/>
  <path d="m335.7 0v14.625"/>
  <path d="m354.35 0v14.625"/>
 </g>
 <g id="ridge_arete" transform="translate(487.587,291.44)" fill="none" stroke="#a5aaa5">
  <path d="m0 0h367.298"/>
 </g>
 <g id="waterfall" transform="translate(488.5,398)" fill="none">
  <path d="m0 7.324h367.298" stroke="#a5aaa5"/>
  <path d="m0.574 0v14.625" stroke="#a5a2e7"/>
  <path d="m19.224 0v14.625" stroke="#a5a2e7"/>
  <path d="m37.874 0v14.625" stroke="#a5a2e7"/>
  <path d="m56.524 0v14.625" stroke="#a5a2e7"/>
  <path d="m75.174 0v14.625" stroke="#a5a2e7"/>
  <path d="m93.824 0v14.625" stroke="#a5a2e7"/>
  <path d="m112.474 0v14.625" stroke="#a5a2e7"/>
  <path d="m131.124 0v14.625" stroke="#a5a2e7"/>
  <path d="m149.774 0v14.625" stroke="#a5a2e7"/>
  <path d="m168.424 0v14.625" stroke="#a5a2e7"/>
  <path d="m187.074 0v14.625" stroke="#a5a2e7"/>
  <path d="m205.724 0v14.625" stroke="#a5a2e7"/>
  <path d="m224.374 0v14.625" stroke="#a5a2e7"/>
  <path d="m243.024 0v14.625" stroke="#a5a2e7"/>
  <path d="m261.674 0v14.625" stroke="#a5a2e7"/>
  <path d="m280.324 0v14.625" stroke="#a5a2e7"/>
  <path d="m298.974 0v14.625" stroke="#a5a2e7"/>
  <path d="m317.624 0v14.625" stroke="#a5a2e7"/>
  <path d="m336.274 0v14.625" stroke="#a5a2e7"/>
  <path d="m354.924 0v14.625" stroke="#a5a2e7"/>
 </g>
 <g id="tree_row" transform="translate(488.434,462.154)" fill="#84cf73">
  <ellipse cy="3.09359" rx="3.88909" ry="3.09359"/>
  <ellipse cx="21.278" cy="3.09359" rx="3.88909" ry="3.09359"/>
  <ellipse cx="42.556" cy="3.09359" rx="3.88909" ry="3.09359"/>
  <ellipse cx="63.835" cy="3.09359" rx="3.88909" ry="3.09359"/>
  <ellipse cx="85.113" cy="3.09359" rx="3.88909" ry="3.09359"/>
  <ellipse cx="106.391" cy="3.09359" rx="3.88909" ry="3.09359"/>
  <ellipse cx="127.669" cy="3.09359" rx="3.88909" ry="3.09359"/>
  <ellipse cx="148.947" cy="3.09359" rx="3.88909" ry="3.09359"/>
  <ellipse cx="170.225" cy="3.09359" rx="3.88909" ry="3.09359"/>
  <ellipse cx="191.504" cy="3.09359" rx="3.88909" ry="3.09359"/>
  <ellipse cx="212.782" cy="3.09359" rx="3.88909" ry="3.09359"/>
  <ellipse cx="234.06" cy="3.09359" rx="3.88909" ry="3.09359"/>
  <ellipse cx="255.338" cy="3.09359" rx="3.88909" ry="3.09359"/>
  <ellipse cx="276.616" cy="3.09359" rx="3.88909" ry="3.09359"/>
  <ellipse cx="297.894" cy="3.09359" rx="3.88909" ry="3.09359"/>
  <ellipse cx="319.173" cy="3.09359" rx="3.88909" ry="3.09359"/>
  <ellipse cx="340.451" cy="3.09359" rx="3.88909" ry="3.09359"/>
  <ellipse cx="361.729" cy="3.09359" rx="3.889" ry="3.09359"/>
 </g>
 <g id="water_slide" transform="translate(488,629)">
  <rect width="368" height="9.375" fill="#84b2ce"/>
  <rect y="1.34107" width="368" height="6.67456" fill="#187db5"/>
  <rect y="2.67524" width="368" height="3.99731" fill="#b5dff7"/>
 </g>
 <g id="cutline" transform="translate(488,495)">
  <rect width="367" height="100" fill="#84cf73"/>
  <rect width="367" height="100" fill="url(#forestPattern)"/>
  <g clip-path="url(#canvas-boundary)">
   <line x2="272" y1="100" stroke="#d6f3d6" stroke-width="8"/>
   <line x2="272" y1="100" stroke="#bdbebd" stroke-dasharray="20, 6"/>
  </g>
 </g>
</svg>

<?xml version="1.0" encoding="UTF-8" standalone="no"?>
<svg
   version="1.1"
   viewBox="0 0 500 500.00001"
   id="svg339"
   sodipodi:docname="osmand-waterways-day.svg"
   width="500"
   height="500"
   inkscape:version="1.2.2 (b0a8486541, 2022-12-01)"
   xmlns:inkscape="http://www.inkscape.org/namespaces/inkscape"
   xmlns:sodipodi="http://sodipodi.sourceforge.net/DTD/sodipodi-0.dtd"
   xmlns="http://www.w3.org/2000/svg"
   xmlns:svg="http://www.w3.org/2000/svg">
  <sodipodi:namedview
     id="namedview341"
     pagecolor="#ffffff"
     bordercolor="#666666"
     borderopacity="1.0"
     inkscape:showpageshadow="2"
     inkscape:pageopacity="0.0"
     inkscape:pagecheckerboard="0"
     inkscape:deskcolor="#d1d1d1"
     showgrid="false"
     inkscape:zoom="0.78864888"
     inkscape:cx="452.67293"
     inkscape:cy="365.81552"
     inkscape:window-width="1920"
     inkscape:window-height="1013"
     inkscape:window-x="1920"
     inkscape:window-y="0"
     inkscape:window-maximized="1"
     inkscape:current-layer="svg339" />
  <defs
     id="defs32">
    <pattern
       id="forestPattern"
       width="64"
       height="64"
       patternUnits="userSpaceOnUse">
      <g
         transform="translate(-.499 .465)"
         fill="none"
         stroke="#67bf4c"
         stroke-linecap="round"
         id="g10">
        <path
           d="m60 51.035v11h2.307"
           id="path2" />
        <path
           d="m57.331 52.367 2.669-1.331 2.655 1.327"
           id="path4" />
        <path
           d="m56.894 55.513 3.106-1.477 3.107 1.477"
           id="path6" />
        <path
           d="m56.688 58.546 3.312-1.546 3.313 1.546"
           id="path8" />
      </g>
      <g
         transform="translate(-11.508 -.975)"
         id="g18">
        <path
           d="m27.005 33.474v11h2.387"
           fill="none"
           stroke="#67bf4c"
           stroke-linecap="round"
           id="path12" />
        <path
           d="m26.567 33.457c-0.657 0-1.191.626-1.191 1.398 0 .286.076.565.215.799-.046 0-.092 0-.139-.01-0.73 0-1.324.696-1.324 1.555 0 .405.133.794.373 1.084-0.868 0-1.572.829-1.572 1.85 0 1.022.705 1.85 1.574 1.85.722 0 2.439-.012 2.482-.012h0.032c0.043 0 1.76.012 2.482.012.869 0 1.574-.828 1.574-1.85 0-1.02-.704-1.849-1.572-1.85.24-.29.373-.679.373-1.084 0-.859-.594-1.555-1.324-1.555-0.047 0-.093 0-.139.01.139-.234.214-.513.214-.799 0-.773-.534-1.399-1.191-1.399-0.634 0-.446.015-.434.016.013 0 .2-.016-.434-.016z"
           fill="none"
           stroke="#67bf4c"
           stroke-linejoin="round"
           id="path14" />
        <path
           d="m27.005 33.474 0.172 8.497s2.082.065 2.323 0c.241-.065 1.732-1 1.732-1s.216-1.329 0-1.544c-.216-.216-.833-.776-.912-.912-.078-.136-.621-.105-.562-.325.059-.219 0-1.219 0-1.219s-0.45-.779-.577-1c-0.128-.22-0.578-1-0.578-1s-0.142-1.295-.363-1.354c-0.22 0-.74-.198-.74-.198l-0.5.054z"
           fill="#67bf4c"
           id="path16" />
      </g>
      <g
         transform="translate(9.493 -21.975)"
         id="g26">
        <path
           d="m27.005 33.474v11h2.387"
           fill="none"
           stroke="#67bf4c"
           stroke-linecap="round"
           id="path20" />
        <path
           d="m26.567 33.457c-0.657 0-1.191.626-1.191 1.398 0 .286.076.565.215.799-.046 0-.092 0-.139-.01-0.73 0-1.324.696-1.324 1.555 0 .405.133.794.373 1.084-0.868 0-1.572.829-1.572 1.85 0 1.022.705 1.85 1.574 1.85.722 0 2.439-.012 2.482-.012h0.032c0.043 0 1.76.012 2.482.012.869 0 1.574-.828 1.574-1.85 0-1.02-.704-1.849-1.572-1.85.24-.29.373-.679.373-1.084 0-.859-.594-1.555-1.324-1.555-0.047 0-.093 0-.139.01.139-.234.214-.513.214-.799 0-.773-.534-1.399-1.191-1.399-0.634 0-.446.015-.434.016.013 0 .2-.016-.434-.016z"
           fill="none"
           stroke="#67bf4c"
           stroke-linejoin="round"
           id="path22" />
        <path
           d="m27.005 33.474 0.172 8.497s2.082.065 2.323 0c.241-.065 1.732-1 1.732-1s.216-1.329 0-1.544c-.216-.216-.833-.776-.912-.912-.078-.136-.621-.105-.562-.325.059-.219 0-1.219 0-1.219s-0.45-.779-.577-1c-0.128-.22-0.578-1-0.578-1s-0.142-1.295-.363-1.354c-0.22 0-.74-.198-.74-.198l-0.5.054z"
           fill="#67bf4c"
           id="path24" />
      </g>
    </pattern>
    <clipPath
       id="canvas-boundary">
      <rect
         width="367"
         height="100"
         id="rect29"
         x="0"
         y="0" />
    </clipPath>
  </defs>
  <g
     id="river"
     transform="translate(60,113)">
    <path
       d="m 0.500978,0.50479 368.320002,-0.004 0.0274,16.3254 -368.341002,0.0105 z"
       fill="#5ac3e7"
       stroke="#a5d3e7"
       id="path34" />
    <path
       d="M 23.3267,5.87446 V 2.73913 l 6.62432,5.96808 -6.64747,6.00576 0.05329,-3.47228 h -8.04935 l -6.28e-4,-5.36105 z"
       fill="#429ab5"
       stroke="#4aaece"
       id="path36" />
    <path
       d="M 255.336,5.93233 V 2.797 l 6.62432,5.96808 -6.64747,6.00576 0.0533,-3.47228 h -8.04935 l -6.2e-4,-5.36105 z"
       fill="#429ab5"
       stroke="#4aaece"
       id="path38" />
  </g>
  <g
     id="canal"
     transform="translate(60,172)">
    <path
       d="m 0.500978,0.50479 368.320002,-0.004 0.0274,16.3254 -368.341002,0.0105 z"
       fill="#5ac3e7"
       stroke="#a5d3e7"
       id="path41" />
    <path
       d="M 23.3267,5.87446 V 2.73913 l 6.62432,5.96808 -6.64747,6.00576 0.05329,-3.47228 h -8.04935 l -6.28e-4,-5.36105 z"
       fill="#429ab5"
       stroke="#4aaece"
       id="path43" />
    <path
       d="M 255.336,5.93233 V 2.797 l 6.62432,5.96808 -6.64747,6.00576 0.0533,-3.47228 h -8.04935 l -6.2e-4,-5.36105 z"
       fill="#429ab5"
       stroke="#4aaece"
       id="path45" />
  </g>
  <g
     id="stream"
     transform="translate(60,227)">
    <path
       d="M 0.500785,4.16032 H 368.64879 V 9.78034 H 0.500785 Z"
       fill="#5ac3e7"
       stroke="#a5d3e7"
       id="path48" />
    <path
       d="M 23.1211,4.32122 V 1.18589 l 6.62432,5.96808 -6.64747,6.00576 0.05329,-3.47228 H 15.10189 L 15.101262,4.3264 Z"
       fill="#429ab5"
       stroke="#4aaece"
       id="path50" />
    <path
       d="M 255.232,4.26056 V 1.12523 l 6.62432,5.96808 -6.64747,6.00576 0.0533,-3.47228 h -8.04934 l -6.3e-4,-5.36105 z"
       fill="#429ab5"
       stroke="#4aaece"
       id="path52" />
  </g>
  <g
     id="drain"
     transform="translate(60,289)">
    <path
       d="m 0.500891,0.505792 368.324999,-0.005 0.008,2.99349 -368.332999,-0.004 z"
       fill="#5ac3e7"
       stroke="#a5d3e7"
       id="path55" />
  </g>
  <g
     id="ditch"
     transform="translate(60,348)">
    <path
       d="m 0.500891,0.505792 368.324999,-0.005 0.008,2.99349 -368.332999,-0.004 z"
       fill="#5ac3e7"
       stroke="#a5d3e7"
       id="path58" />
  </g>
  <g
     id="intermittent_stream"
     transform="translate(60,400)"
     fill="#5ac3e7"
     stroke="#a5d3e7">
    <path
       d="M 0,0 H 16.322 V 5.64623 H -0.009 Z"
       id="path61" />
    <path
       d="M 25.345,-0.014 H 41.667 V 5.632 H 25.336 Z"
       id="path63" />
    <path
       d="M 50.692,0 H 67.014 V 5.646 H 50.683 Z"
       id="path65" />
    <path
       d="M 76.037,-0.014 H 92.359 V 5.632 H 76.028 Z"
       id="path67" />
    <path
       d="m 101.31,0 h 16.322 v 5.646 h -16.331 z"
       id="path69" />
    <path
       d="m 126.655,-0.014 h 16.322 v 5.646 h -16.331 z"
       id="path71" />
    <path
       d="m 152.002,0 h 16.322 v 5.646 h -16.331 z"
       id="path73" />
    <path
       d="m 177.347,-0.014 h 16.322 v 5.646 h -16.331 z"
       id="path75" />
    <path
       d="m 202.689,0 h 16.322 V 5.646 H 202.68 Z"
       id="path77" />
    <path
       d="m 228.033,-0.014 h 16.322 v 5.646 h -16.331 z"
       id="path79" />
    <path
       d="m 253.38,0 h 16.322 v 5.646 h -16.331 z"
       id="path81" />
    <path
       d="m 278.725,-0.014 h 16.322 v 5.646 h -16.331 z"
       id="path83" />
    <path
       d="m 304,0 h 16.322 v 5.646 h -16.331 z"
       id="path85" />
    <path
       d="m 329.345,-0.014 h 16.322 v 5.646 h -16.331 z"
       id="path87" />
    <path
       d="m 354.692,0 h 16.322 v 5.646 h -16.331 z"
       id="path89" />
  </g>
</svg>
